assets/offering/juridisk-tvist-grey.svg

<svg width="48" height="48" viewBox="0 0 48 48" fill="none" xmlns="http://www.w3.org/2000/svg">
<g opacity="0.3">
<mask id="mask0" mask-type="alpha" maskUnits="userSpaceOnUse" x="0" y="0" width="48" height="48">
<path fill-rule="evenodd" clip-rule="evenodd" d="M0 0H47.9999V48H0V0Z" fill="white"/>
</mask>
<g mask="url(#mask0)">
<path fill-rule="evenodd" clip-rule="evenodd" d="M48 24C48 37.255 37.255 48 24 48C10.745 48 0 37.255 0 24C0 10.745 10.745 0 24 0C37.255 0 48 10.745 48 24" fill="#651EFF"/>
</g>
<path fill-rule="evenodd" clip-rule="evenodd" d="M14.6729 33.5407H13.6729V12.3037C13.6729 11.4207 14.3919 10.7017 15.2749 10.7017H32.7249C33.6089 10.7017 34.3269 11.4207 34.3269 12.3037V30.2827H33.3269V12.3037C33.3269 11.9717 33.0569 11.7017 32.7249 11.7017H15.2749C14.9429 11.7017 14.6729 11.9717 14.6729 12.3037V33.5407Z" fill="white"/>
<mask id="mask1" mask-type="alpha" maskUnits="userSpaceOnUse" x="0" y="0" width="48" height="48">
<path fill-rule="evenodd" clip-rule="evenodd" d="M0 48H48V0H0V48Z" fill="white"/>
</mask>
<g mask="url(#mask1)">
<path fill-rule="evenodd" clip-rule="evenodd" d="M13.8379 34.041H34.3269V33.041H13.8379V34.041Z" fill="white"/>
<path fill-rule="evenodd" clip-rule="evenodd" d="M34.3273 37.2982H17.4313C15.3583 37.2982 13.6733 35.6122 13.6733 33.5402C13.6733 31.4682 15.3583 29.7822 17.4313 29.7822H34.3273V30.7822H17.4313C15.9103 30.7822 14.6733 32.0202 14.6733 33.5402C14.6733 35.0612 15.9103 36.2982 17.4313 36.2982H34.3273V37.2982Z" fill="white"/>
<path fill-rule="evenodd" clip-rule="evenodd" d="M24.083 19.5576C22.83 19.5576 21.812 18.5386 21.812 17.2866C21.812 16.0346 22.83 15.0156 24.083 15.0156H26.609V16.0156H24.083C23.382 16.0156 22.812 16.5866 22.812 17.2866C22.812 17.9876 23.382 18.5576 24.083 18.5576V19.5576Z" fill="white"/>
<path fill-rule="evenodd" clip-rule="evenodd" d="M24.083 19.5576C23.382 19.5576 22.812 20.1276 22.812 20.8286C22.812 21.5286 23.382 22.0986 24.083 22.0986C24.783 22.0986 25.354 21.5286 25.354 20.8286C25.354 20.1276 24.783 19.5576 24.083 19.5576V19.5576ZM24.083 23.0986C22.83 23.0986 21.812 22.0796 21.812 20.8286C21.812 19.5766 22.83 18.5576 24.083 18.5576C25.335 18.5576 26.354 19.5766 26.354 20.8286C26.354 22.0796 25.335 23.0986 24.083 23.0986V23.0986Z" fill="white"/>
<path fill-rule="evenodd" clip-rule="evenodd" d="M24.0832 26.6401H21.5562V25.6401H24.0832C24.7832 25.6401 25.3542 25.0701 25.3542 24.3691C25.3542 23.6691 24.7832 23.0981 24.0832 23.0981V22.0981C25.3352 22.0981 26.3542 23.1171 26.3542 24.3691C26.3542 25.6211 25.3352 26.6401 24.0832 26.6401" fill="white"/>
</g>
</g>
</svg>

<svg width="48" height="48" viewBox="0 0 48 48" fill="none" xmlns="http://www.w3.org/2000/svg"><g opacity=".3"><mask id="a" maskUnits="userSpaceOnUse" x="0" y="0" width="48" height="48"><path fill-rule="evenodd" clip-rule="evenodd" d="M0 0h48v48H0V0z" fill="#fff"/></mask><g mask="url(#a)"><path fill-rule="evenodd" clip-rule="evenodd" d="M48 24c0 13.255-10.745 24-24 24S0 37.255 0 24 10.745 0 24 0s24 10.745 24 24" fill="#651EFF"/></g><path fill-rule="evenodd" clip-rule="evenodd" d="M14.673 33.54h-1V12.305c0-.883.719-1.602 1.602-1.602h17.45c.884 0 1.602.719 1.602 1.602v17.979h-1v-17.98a.603.603 0 00-.602-.601h-17.45a.603.603 0 00-.602.602V33.54z" fill="#fff"/><mask id="b" maskUnits="userSpaceOnUse" x="0" y="0" width="48" height="48"><path fill-rule="evenodd" clip-rule="evenodd" d="M0 48h48V0H0v48z" fill="#fff"/></mask><g mask="url(#b)" fill-rule="evenodd" clip-rule="evenodd" fill="#fff"><path d="M13.838 34.041h20.489v-1h-20.49v1z"/><path d="M34.327 37.298H17.431a3.762 3.762 0 01-3.758-3.758 3.762 3.762 0 013.758-3.758h16.896v1H17.431a2.761 2.761 0 00-2.758 2.758 2.76 2.76 0 002.758 2.758h16.896v1zM24.083 19.558a2.273 2.273 0 01-2.271-2.271 2.273 2.273 0 012.271-2.271h2.526v1h-2.526c-.701 0-1.271.57-1.271 1.27 0 .702.57 1.272 1.271 1.272v1z"/><path d="M24.083 19.558c-.701 0-1.271.57-1.271 1.27a1.272 1.272 0 002.542 0c0-.7-.571-1.27-1.271-1.27zm0 3.54a2.273 2.273 0 01-2.271-2.27 2.273 2.273 0 012.271-2.27 2.274 2.274 0 012.271 2.27 2.274 2.274 0 01-2.271 2.27z"/><path d="M24.083 26.64h-2.527v-1h2.527c.7 0 1.271-.57 1.271-1.27 0-.7-.57-1.272-1.27-1.272v-1a2.274 2.274 0 012.27 2.271 2.274 2.274 0 01-2.27 2.271"/></g></g></svg>
